assets/logos/icons/tools.svg

<svg height="24" viewBox="0 0 24 24" width="24" xmlns="http://www.w3.org/2000/svg"><path d="m16.5388584 8.8312545-7.59710745 7.5971075c.53599196 1.148401.31317018 2.5780142-.65801671 3.549201-.97118689.9711869-2.40080004 1.1940087-3.54920106.6580167l1.4870202-1.4870201c.41062929-.4106293.41990327-1.067117.02071401-1.4663062-.39918925-.3991893-1.05567689-.3899153-1.46630618.020714l-1.4870202 1.4870202c-.53599196-1.148401-.31317019-2.5780142.6580167-3.5492011s2.40080004-1.1940087 3.54920106-.6580167l7.59710753-7.59710748c-.5447038-1.1396892-.3453887-2.54579568.598167-3.48935138s2.3496622-1.1428708 3.4893514-.59816703l-1.4447131 1.44471306c-.3989465.39894649-.3987497 1.04596336.0004396 1.44515262.3991892.39918926 1.0462061.39938605 1.4451526.00043956l1.444713-1.44471306c.5447038 1.1396892.3453887 2.54579568-.598167 3.48935138s-2.3496622 1.1428708-3.4893514.59816703zm-8.25133088-2.18457367 2.88574438 2.8857444-1.44559215 1.44559217-2.89307069-2.89307068-1.44150805.00408413-2.16706959-2.16706959 2.89118435-2.89118436 2.16706959 2.1670696zm9.09110618 11.47156617.7252148-.7252148-4.1028884-4.0938821 1.4455922-1.4455921 4.1028883 4.093882.0013984-.0013983 1.4447131 1.444713-3.6139805 3.6139805-.1720264-.1720265-5.4364132-5.4039007 1.4455922-1.4455921z" fill="#492f5c" fill-rule="evenodd"/></svg>

<svg xmlns="http://www.w3.org/2000/svg" width="24" height="24" viewBox="0 0 24 24">
  <path fill="#492F5C" fill-rule="evenodd" d="M16.5388584,8.8312545 L8.94175095,16.428362 C9.47774291,17.576763 9.25492113,19.0063762 8.28373424,19.977563 C7.31254735,20.9487499 5.8829342,21.1715717 4.73453318,20.6355797 L6.22155338,19.1485596 C6.63218267,18.7379303 6.64145665,18.0814426 6.24226739,17.6822534 C5.84307814,17.2830641 5.1865905,17.2923381 4.77596121,17.7029674 L3.28894101,19.1899876 C2.75294905,18.0415866 2.97577082,16.6119734 3.94695771,15.6407865 C4.9181446,14.6695996 6.34775775,14.4467778 7.49615877,14.9827698 L15.0932663,7.38566232 C14.5485625,6.24597312 14.7478776,4.83986664 15.6914333,3.89631094 C16.634989,2.95275524 18.0410955,2.75344014 19.1807847,3.29814391 L17.7360716,4.74285697 C17.3371251,5.14180346 17.3373219,5.78882033 17.7365112,6.18800959 C18.1357004,6.58719885 18.7827173,6.58739564 19.1816638,6.18844915 L20.6263768,4.74373609 C21.1710806,5.88342529 20.9717655,7.28953177 20.0282098,8.23308747 C19.0846541,9.17664317 17.6785476,9.37595827 16.5388584,8.8312545 Z M8.28752752,6.64668083 L11.1732719,9.53242523 L9.72767975,10.9780174 L6.83460906,8.08494672 L5.39310101,8.08903085 L3.22603142,5.92196126 L6.11721577,3.0307769 L8.28428536,5.1978465 L8.28752752,6.64668083 Z M17.3786337,18.118247 L18.1038485,17.3930322 L14.0009601,13.2991501 L15.4465523,11.853558 L19.5494406,15.94744 L19.550839,15.9460417 L20.9955521,17.3907547 L17.3815716,21.0047352 L17.2095452,20.8327087 L11.773132,15.428808 L13.2187242,13.9832159 L17.3786337,18.118247 Z"/>
</svg>
